X:1
T:Road Trip
C:Megan Wobus
S:Megan Wobus composed 2/1/2002
M:2/4
R:reel
K:D
|: A2AB cdec | dcBA G2B2 | ABcd efga | gfed BAGB |
 A2AB cdec | dcBA G2EF | GFGA GFEF | D3 D3 F2 :|
|: E2AB cdef | gedc BAGF | E2AB cdec | d2G4F2 |
 E2AB cdef | gedc BAG2 | (3gfe af gfed | edBA G4 :|
W:Copyright 2002 Megan Wobus, PGTPPCATPL AORR
